X:218
T:Enchanted Lady
R:reel
Z:transcribed by Dave Marshall
M:C|
K:D
|: A3G FAdB | AGFD EA,A,2 | A3G FAdA |1 Bdeg fddB :|2 Bdeg fdde |
| f2df efdf | afdf edBA | f2df efdB | ABAG FDD2 |
f2df efdf | afdf edBd | A2FA dfbf | afeg fdd2 |
